src/img/slider_local_5.svg

<svg fill="none" height="110" viewBox="0 0 320 110" width="320" xmlns="http://www.w3.org/2000/svg" xmlns:xlink="http://www.w3.org/1999/xlink"><mask id="a" fill="#fff"><path clip-rule="evenodd" d="m119.333 33.3333c0 .3839-.332.6667-.716.6667h-22.8612c-.8477 0-1.6368-.5335-1.7238-1.3767-.0212-.2049-.032-.4128-.032-.6233 0-3.3137 2.6863-6 6-6 .817 0 1.622-.3789 2.109-1.0346 1.336-1.7994 3.477-2.9654 5.891-2.9654 3.287 0 6.068 2.162 7 5.1413.28.8935.996 1.62 1.826 2.0537 1.49.7792 2.507 2.3399 2.507 4.1383z" fill="#fff" fill-rule="evenodd"/></mask><mask id="b" fill="#fff"><path clip-rule="evenodd" d="m94.6065 37.0525c.4306 1.0172-.5019 1.9475-1.6065 1.9475h-15.6853c-.648 0-1.3147-.3519-1.3147-1 0-1.1046.8954-2 2-2 .2973 0 .5958-.1222.7715-.362.7278-.9931 1.9029-1.638 3.2285-1.638.1989 0 .3839-.1076.4851-.2789.6092-1.0302 1.7314-1.7211 3.0149-1.7211 1.0014 0 1.9045.4205 2.5425 1.0946.5039.5324 1.2245.9054 1.9575.9054 2.0706 0 3.8472 1.2586 4.6065 3.0525z" fill="#fff" fill-rule="evenodd"/></mask><mask id="c" fill="#fff"><path clip-rule="evenodd" d="m266.333 33.3333c0 .3839-.332.6667-.716.6667h-22.861c-.848 0-1.637-.5335-1.724-1.3767-.021-.2049-.032-.4128-.032-.6233 0-3.3137 2.686-6 6-6 .817 0 1.622-.3789 2.109-1.0346 1.336-1.7994 3.477-2.9654 5.891-2.9654 3.287 0 6.068 2.162 7 5.1413.28.8935.996 1.62 1.826 2.0537 1.49.7792 2.507 2.3399 2.507 4.1383z" fill="#fff" fill-rule="evenodd"/></mask><mask id="d" fill="#fff"><path clip-rule="evenodd" d="m241.607 37.0525c.43 1.0172-.502 1.9475-1.607 1.9475h-15.685c-.648 0-1.315-.3519-1.315-1 0-1.1046.895-2 2-2 .297 0 .596-.1222.772-.362.727-.9931 1.902-1.638 3.228-1.638.199 0 .384-.1076.485-.2789.609-1.0302 1.731-1.7211 3.015-1.7211 1.001 0 1.905.4205 2.543 1.0946.503.5324 1.224.9054 1.957.9054 2.071 0 3.847 1.2586 4.607 3.0525z" fill="#fff" fill-rule="evenodd"/></mask><path d="m0 0h320v110h-320z" fill="#4992ff"/><path d="m183.995 46.5707c.039-.2734-.151-.5266-.424-.5657l-4.455-.6364c-.273-.039-.527.1509-.566.4243s.151.5266.425.5657l3.959.5657-.565 3.9598c-.039.2733.151.5266.424.5656.273.0391.527-.1508.566-.4242zm-47.287.3351c6.374 4.5892 15.724 6.3955 24.642 6.169 8.913-.2262 17.532-2.4866 22.45-6.1748l-.6-.8c-4.682 3.5118-13.063 5.7514-21.875 5.9752-8.807.2235-17.907-1.5702-24.033-5.981z" fill="#000"/><g stroke="#000"><rect fill="#fff" height="59" rx="1.5" width="79" x="47.5" y="15.5"/><circle cx="63" cy="27" fill="#f4d150" r="6.5"/><path d="m47.5 52.5h79v20.5c0 .8284-.672 1.5-1.5 1.5h-76c-.8284 0-1.5-.6716-1.5-1.5z" fill="#0fa958"/></g><path clip-rule="evenodd" d="m119.333 33.3333c0 .3839-.332.6667-.716.6667h-22.8612c-.8477 0-1.6368-.5335-1.7238-1.3767-.0212-.2049-.032-.4128-.032-.6233 0-3.3137 2.6863-6 6-6 .817 0 1.622-.3789 2.109-1.0346 1.336-1.7994 3.477-2.9654 5.891-2.9654 3.287 0 6.068 2.162 7 5.1413.28.8935.996 1.62 1.826 2.0537 1.49.7792 2.507 2.3399 2.507 4.1383z" fill="#d6c0f8" fill-rule="evenodd"/><path d="m116.826 29.195.463-.8862zm-21.0702 5.805h22.8612v-2h-22.8612zm-.7291-2.4794c-.0176-.1708-.0267-.3445-.0267-.5206h-2c0 .2448.0126.487.0373.726zm-.0267-.5206c0-2.7614 2.2386-5 5-5v-2c-3.866 0-7 3.134-7 7zm7.912-6.4384c1.155-1.5563 3.004-2.5616 5.088-2.5616v-2c-2.743 0-5.177 1.3267-6.694 3.3692zm5.088-2.5616c2.837 0 5.241 1.8659 6.046 4.4399l1.909-.5971c-1.059-3.3847-4.219-5.8428-7.955-5.8428zm8.362 7.0812c1.174.6135 1.971 1.8405 1.971 3.2521h2c0-2.1851-1.237-4.0797-3.044-5.0245zm-16.362-3.0812c1.111 0 2.223-.5116 2.912-1.4384l-1.606-1.1924c-.286.3847-.784.6308-1.306.6308zm14.046.4399c.377 1.2047 1.311 2.116 2.316 2.6413l.927-1.7724c-.655-.3421-1.152-.8839-1.334-1.466zm4.571 7.5601c.841 0 1.716-.6396 1.716-1.6667h-2c0-.112.053-.208.115-.2639.056-.0509.117-.0694.169-.0694zm-22.8612-2c-.2209 0-.4139-.0709-.542-.1683-.1191-.0905-.1751-.1944-.1871-.3111l-1.9894.2054c.1544 1.4958 1.516 2.274 2.7185 2.274z" fill="#000" mask="url(#a)"/><path clip-rule="evenodd" d="m94.6065 37.0525c.4306 1.0172-.5019 1.9475-1.6065 1.9475h-15.6853c-.648 0-1.3147-.3519-1.3147-1 0-1.1046.8954-2 2-2 .2973 0 .5958-.1222.7715-.362.7278-.9931 1.9029-1.638 3.2285-1.638.1989 0 .3839-.1076.4851-.2789.6092-1.0302 1.7314-1.7211 3.0149-1.7211 1.0014 0 1.9045.4205 2.5425 1.0946.5039.5324 1.2245.9054 1.9575.9054 2.0706 0 3.8472 1.2586 4.6065 3.0525z" fill="#d6c0f8" fill-rule="evenodd"/><path d="m94.6065 37.0525-.9209.3898zm-17.2918 2.9475h15.6853v-2h-15.6853zm-.3147-2c0-.5523.4477-1 1-1v-2c-1.6569 0-3 1.3431-3 3zm2.5781-1.7709c.5476-.7472 1.4284-1.2291 2.4219-1.2291v-2c-1.6578 0-3.127.8078-4.0351 2.0469zm3.7678-1.999c.4367-.7385 1.2385-1.2301 2.1541-1.2301v-2c-1.6515 0-3.094.8902-3.8756 2.2121zm2.1541-1.2301c.7154 0 1.3592.2992 1.8162.782l1.4526-1.3747c-.8189-.8654-1.9814-1.4073-3.2688-1.4073zm4.5 2c1.6549 0 3.0773 1.0052 3.6856 2.4423l1.8418-.7796c-.9103-2.1507-3.0411-3.6627-5.5274-3.6627zm-2.6838-1.218c.6522.6892 1.6222 1.218 2.6838 1.218v-2c-.4044 0-.8757-.2171-1.2312-.5927zm-9.3162 3.218c.547 0 1.1766-.2231 1.5781-.7709l-1.6132-1.1822c.0252-.0344.0497-.047.0542-.049.0023-.0011.0013-.0004-.003.0005s-.0099.0016-.0161.0016zm4-2c.5599 0 1.0685-.3007 1.3459-.7699l-1.7215-1.018c.0749-.1266.2136-.2121.3756-.2121zm11 5c.8213 0 1.6101-.3428 2.1288-.9307.5419-.6142.7807-1.5039.3986-2.4066l-1.8418.7796c.0329.0776.0305.1256.0248.1554-.0068.0351-.0272.0871-.0813.1484-.116.1315-.3459.2539-.6291.2539zm-15.6853-2c-.0733 0-.1454-.0102-.2086-.0279-.0639-.018-.1059-.04-.1281-.0551-.0215-.0146-.0141-.0155-.0006.0077.0163.0279.0226.0585.0226.0753h-2c0 .7173.3862 1.2521.8507 1.5691.4423.3017.9764.4309 1.464.4309z" fill="#000" mask="url(#b)"/><g stroke="#000"><rect fill="#16254d" height="59" rx="1.5" width="79" x="194.5" y="15.5"/><circle cx="210" cy="27" fill="#fff" r="6.5"/><path d="m194.5 52.5h79v20.5c0 .8284-.672 1.5-1.5 1.5h-76c-.828 0-1.5-.6716-1.5-1.5z" fill="#1e7075"/></g><path clip-rule="evenodd" d="m266.333 33.3333c0 .3839-.332.6667-.716.6667h-22.861c-.848 0-1.637-.5335-1.724-1.3767-.021-.2049-.032-.4128-.032-.6233 0-3.3137 2.686-6 6-6 .817 0 1.622-.3789 2.109-1.0346 1.336-1.7994 3.477-2.9654 5.891-2.9654 3.287 0 6.068 2.162 7 5.1413.28.8935.996 1.62 1.826 2.0537 1.49.7792 2.507 2.3399 2.507 4.1383z" fill="#6529c3" fill-rule="evenodd"/><path d="m263.826 29.195.463-.8862zm-21.07 5.805h22.861v-2h-22.861zm-.729-2.4794c-.018-.1708-.027-.3445-.027-.5206h-2c0 .2448.013.487.037.726zm-.027-.5206c0-2.7614 2.239-5 5-5v-2c-3.866 0-7 3.134-7 7zm7.912-6.4384c1.155-1.5563 3.004-2.5616 5.088-2.5616v-2c-2.743 0-5.177 1.3267-6.694 3.3692zm5.088-2.5616c2.837 0 5.241 1.8659 6.046 4.4399l1.909-.5971c-1.059-3.3847-4.219-5.8428-7.955-5.8428zm8.362 7.0812c1.174.6135 1.971 1.8405 1.971 3.2521h2c0-2.1851-1.237-4.0797-3.044-5.0245zm-16.362-3.0812c1.111 0 2.223-.5116 2.912-1.4384l-1.606-1.1924c-.286.3847-.784.6308-1.306.6308zm14.046.4399c.377 1.2047 1.311 2.116 2.316 2.6413l.927-1.7724c-.655-.3421-1.152-.8839-1.334-1.466zm4.571 7.5601c.841 0 1.716-.6396 1.716-1.6667h-2c0-.112.053-.208.115-.2639.056-.0509.117-.0694.169-.0694zm-22.861-2c-.221 0-.414-.0709-.542-.1683-.119-.0905-.175-.1944-.187-.3111l-1.99.2054c.155 1.4958 1.516 2.274 2.719 2.274z" fill="#000" mask="url(#c)"/><path clip-rule="evenodd" d="m241.607 37.0525c.43 1.0172-.502 1.9475-1.607 1.9475h-15.685c-.648 0-1.315-.3519-1.315-1 0-1.1046.895-2 2-2 .297 0 .596-.1222.772-.362.727-.9931 1.902-1.638 3.228-1.638.199 0 .384-.1076.485-.2789.609-1.0302 1.731-1.7211 3.015-1.7211 1.001 0 1.905.4205 2.543 1.0946.503.5324 1.224.9054 1.957.9054 2.071 0 3.847 1.2586 4.607 3.0525z" fill="#6529c3" fill-rule="evenodd"/><path d="m241.607 37.0525-.921.3898zm-17.292 2.9475h15.685v-2h-15.685zm-.315-2c0-.5523.448-1 1-1v-2c-1.657 0-3 1.3431-3 3zm2.578-1.7709c.548-.7472 1.428-1.2291 2.422-1.2291v-2c-1.658 0-3.127.8078-4.035 2.0469zm3.768-1.999c.437-.7385 1.238-1.2301 2.154-1.2301v-2c-1.651 0-3.094.8902-3.876 2.2121zm2.154-1.2301c.715 0 1.359.2992 1.816.782l1.453-1.3747c-.819-.8654-1.982-1.4073-3.269-1.4073zm4.5 2c1.655 0 3.077 1.0052 3.686 2.4423l1.841-.7796c-.91-2.1507-3.041-3.6627-5.527-3.6627zm-2.684-1.218c.652.6892 1.622 1.218 2.684 1.218v-2c-.404 0-.876-.2171-1.231-.5927zm-9.316 3.218c.547 0 1.177-.2231 1.578-.7709l-1.613-1.1822c.025-.0344.05-.047.054-.049.002-.0011.001-.0004-.003.0005s-.01.0016-.016.0016zm4-2c.56 0 1.068-.3007 1.346-.7699l-1.722-1.018c.075-.1266.214-.2121.376-.2121zm11 5c.821 0 1.61-.3428 2.129-.9307.542-.6142.781-1.5039.398-2.4066l-1.841.7796c.032.0776.03.1256.024.1554-.006.0351-.027.0871-.081.1484-.116.1315-.346.2539-.629.2539zm-15.685-2c-.074 0-.146-.0102-.209-.0279-.064-.018-.106-.04-.128-.0551-.021-.0146-.014-.0155-.001.0077.017.0279.023.0585.023.0753h-2c0 .7173.386 1.2521.851 1.5691.442.3017.976.4309 1.464.4309z" fill="#000" mask="url(#d)"/><circle cx="170" cy="33" r="4" stroke="#000"/><path d="m147 33.5h9" stroke="#000"/></svg>

<svg width="320" height="110" viewBox="0 0 320 110" fill="none" xmlns="http://www.w3.org/2000/svg">
<rect width="320" height="110" fill="#4992FF"/>
<path d="M183.995 46.5707C184.034 46.2973 183.844 46.0441 183.571 46.005L179.116 45.3686C178.843 45.3296 178.589 45.5195 178.55 45.7929C178.511 46.0663 178.701 46.3195 178.975 46.3586L182.934 46.9243L182.369 50.8841C182.33 51.1574 182.52 51.4107 182.793 51.4497C183.066 51.4888 183.32 51.2989 183.359 51.0255L183.995 46.5707ZM136.708 46.9058C143.082 51.495 152.432 53.3013 161.35 53.0748C170.263 52.8486 178.882 50.5882 183.8 46.9L183.2 46.1C178.518 49.6118 170.137 51.8514 161.325 52.0752C152.518 52.2987 143.418 50.505 137.292 46.0942L136.708 46.9058Z" fill="black"/>
<rect x="47.5" y="15.5" width="79" height="59" rx="1.5" fill="white" stroke="black"/>
<circle cx="63" cy="27" r="6.5" fill="#F4D150" stroke="black"/>
<path d="M47.5 52.5H126.5V73C126.5 73.8284 125.828 74.5 125 74.5H49C48.1716 74.5 47.5 73.8284 47.5 73V52.5Z" fill="#0FA958" stroke="black"/>
<mask id="path-7-inside-1" fill="white">
<path fill-rule="evenodd" clip-rule="evenodd" d="M119.333 33.3333C119.333 33.7172 119.001 34 118.617 34H95.7558C94.9081 34 94.119 33.4665 94.032 32.6233C94.0108 32.4184 94 32.2105 94 32C94 28.6863 96.6863 26 100 26V26C100.817 26 101.622 25.6211 102.109 24.9654C103.445 23.166 105.586 22 108 22C111.287 22 114.068 24.162 115 27.1413C115.28 28.0348 115.996 28.7613 116.826 29.195C118.316 29.9742 119.333 31.5349 119.333 33.3333V33.3333Z"/>
</mask>
<path fill-rule="evenodd" clip-rule="evenodd" d="M119.333 33.3333C119.333 33.7172 119.001 34 118.617 34H95.7558C94.9081 34 94.119 33.4665 94.032 32.6233C94.0108 32.4184 94 32.2105 94 32C94 28.6863 96.6863 26 100 26V26C100.817 26 101.622 25.6211 102.109 24.9654C103.445 23.166 105.586 22 108 22C111.287 22 114.068 24.162 115 27.1413C115.28 28.0348 115.996 28.7613 116.826 29.195C118.316 29.9742 119.333 31.5349 119.333 33.3333V33.3333Z" fill="#D6C0F8"/>
<path d="M116.826 29.195L117.289 28.3088L116.826 29.195ZM95.7558 35H118.617V33H95.7558V35ZM95.0267 32.5206C95.0091 32.3498 95 32.1761 95 32H93C93 32.2448 93.0126 32.487 93.0373 32.726L95.0267 32.5206ZM95 32C95 29.2386 97.2386 27 100 27V25C96.134 25 93 28.134 93 32H95ZM102.912 25.5616C104.067 24.0053 105.916 23 108 23V21C105.257 21 102.823 22.3267 101.306 24.3692L102.912 25.5616ZM108 23C110.837 23 113.241 24.8659 114.046 27.4399L115.955 26.8428C114.896 23.4581 111.736 21 108 21V23ZM116.362 30.0812C117.536 30.6947 118.333 31.9217 118.333 33.3333H120.333C120.333 31.1482 119.096 29.2536 117.289 28.3088L116.362 30.0812ZM100 27C101.111 27 102.223 26.4884 102.912 25.5616L101.306 24.3692C101.02 24.7539 100.522 25 100 25V27ZM114.046 27.4399C114.423 28.6446 115.357 29.5559 116.362 30.0812L117.289 28.3088C116.634 27.9667 116.137 27.4249 115.955 26.8428L114.046 27.4399ZM118.617 35C119.458 35 120.333 34.3604 120.333 33.3333H118.333C118.333 33.2213 118.386 33.1253 118.448 33.0694C118.504 33.0185 118.565 33 118.617 33V35ZM95.7558 33C95.5349 33 95.3419 32.9291 95.2138 32.8317C95.0947 32.7412 95.0387 32.6373 95.0267 32.5206L93.0373 32.726C93.1917 34.2218 94.5533 35 95.7558 35V33Z" fill="black" mask="url(#path-7-inside-1)"/>
<mask id="path-9-inside-2" fill="white">
<path fill-rule="evenodd" clip-rule="evenodd" d="M94.6065 37.0525C95.0371 38.0697 94.1046 39 93 39H77.3147C76.6667 39 76 38.6481 76 38V38C76 36.8954 76.8954 36 78 36V36C78.2973 36 78.5958 35.8778 78.7715 35.638C79.4993 34.6449 80.6744 34 82 34V34C82.1989 34 82.3839 33.8924 82.4851 33.7211C83.0943 32.6909 84.2165 32 85.5 32C86.5014 32 87.4045 32.4205 88.0425 33.0946C88.5464 33.627 89.267 34 90 34V34C92.0706 34 93.8472 35.2586 94.6065 37.0525Z"/>
</mask>
<path fill-rule="evenodd" clip-rule="evenodd" d="M94.6065 37.0525C95.0371 38.0697 94.1046 39 93 39H77.3147C76.6667 39 76 38.6481 76 38V38C76 36.8954 76.8954 36 78 36V36C78.2973 36 78.5958 35.8778 78.7715 35.638C79.4993 34.6449 80.6744 34 82 34V34C82.1989 34 82.3839 33.8924 82.4851 33.7211C83.0943 32.6909 84.2165 32 85.5 32C86.5014 32 87.4045 32.4205 88.0425 33.0946C88.5464 33.627 89.267 34 90 34V34C92.0706 34 93.8472 35.2586 94.6065 37.0525Z" fill="#D6C0F8"/>
<path d="M94.6065 37.0525L93.6856 37.4423L94.6065 37.0525ZM77.3147 40H93V38H77.3147V40ZM77 38C77 37.4477 77.4477 37 78 37V35C76.3431 35 75 36.3431 75 38H77ZM79.5781 36.2291C80.1257 35.4819 81.0065 35 82 35V33C80.3422 33 78.873 33.8078 77.9649 35.0469L79.5781 36.2291ZM83.3459 34.2301C83.7826 33.4916 84.5844 33 85.5 33V31C83.8485 31 82.406 31.8902 81.6244 33.2121L83.3459 34.2301ZM85.5 33C86.2154 33 86.8592 33.2992 87.3162 33.782L88.7688 32.4073C87.9499 31.5419 86.7874 31 85.5 31V33ZM90 35C91.6549 35 93.0773 36.0052 93.6856 37.4423L95.5274 36.6627C94.6171 34.512 92.4863 33 90 33V35ZM87.3162 33.782C87.9684 34.4712 88.9384 35 90 35V33C89.5956 33 89.1243 32.7829 88.7688 32.4073L87.3162 33.782ZM78 37C78.547 37 79.1766 36.7769 79.5781 36.2291L77.9649 35.0469C77.9901 35.0125 78.0146 34.9999 78.0191 34.9979C78.0214 34.9968 78.0204 34.9975 78.0161 34.9984C78.0118 34.9993 78.0062 35 78 35V37ZM82 35C82.5599 35 83.0685 34.6993 83.3459 34.2301L81.6244 33.2121C81.6993 33.0855 81.838 33 82 33V35ZM93 40C93.8213 40 94.6101 39.6572 95.1288 39.0693C95.6707 38.4551 95.9095 37.5654 95.5274 36.6627L93.6856 37.4423C93.7185 37.5199 93.7161 37.5679 93.7104 37.5977C93.7036 37.6328 93.6832 37.6848 93.6291 37.7461C93.5131 37.8776 93.2832 38 93 38V40ZM77.3147 38C77.2414 38 77.1693 37.9898 77.1061 37.9721C77.0422 37.9541 77.0002 37.9321 76.978 37.917C76.9565 37.9024 76.9639 37.9015 76.9774 37.9247C76.9937 37.9526 77 37.9832 77 38H75C75 38.7173 75.3862 39.2521 75.8507 39.5691C76.293 39.8708 76.8271 40 77.3147 40V38Z" fill="black" mask="url(#path-9-inside-2)"/>
<rect x="194.5" y="15.5" width="79" height="59" rx="1.5" fill="#16254D" stroke="black"/>
<circle cx="210" cy="27" r="6.5" fill="white" stroke="black"/>
<path d="M194.5 52.5H273.5V73C273.5 73.8284 272.828 74.5 272 74.5H196C195.172 74.5 194.5 73.8284 194.5 73V52.5Z" fill="#1E7075" stroke="black"/>
<mask id="path-14-inside-3" fill="white">
<path fill-rule="evenodd" clip-rule="evenodd" d="M266.333 33.3333C266.333 33.7172 266.001 34 265.617 34H242.756C241.908 34 241.119 33.4665 241.032 32.6233C241.011 32.4184 241 32.2105 241 32C241 28.6863 243.686 26 247 26V26C247.817 26 248.622 25.6211 249.109 24.9654C250.445 23.166 252.586 22 255 22C258.287 22 261.068 24.162 262 27.1413C262.28 28.0348 262.996 28.7613 263.826 29.195C265.316 29.9742 266.333 31.5349 266.333 33.3333V33.3333Z"/>
</mask>
<path fill-rule="evenodd" clip-rule="evenodd" d="M266.333 33.3333C266.333 33.7172 266.001 34 265.617 34H242.756C241.908 34 241.119 33.4665 241.032 32.6233C241.011 32.4184 241 32.2105 241 32C241 28.6863 243.686 26 247 26V26C247.817 26 248.622 25.6211 249.109 24.9654C250.445 23.166 252.586 22 255 22C258.287 22 261.068 24.162 262 27.1413C262.28 28.0348 262.996 28.7613 263.826 29.195C265.316 29.9742 266.333 31.5349 266.333 33.3333V33.3333Z" fill="#6529C3"/>
<path d="M263.826 29.195L264.289 28.3088L263.826 29.195ZM242.756 35H265.617V33H242.756V35ZM242.027 32.5206C242.009 32.3498 242 32.1761 242 32H240C240 32.2448 240.013 32.487 240.037 32.726L242.027 32.5206ZM242 32C242 29.2386 244.239 27 247 27V25C243.134 25 240 28.134 240 32H242ZM249.912 25.5616C251.067 24.0053 252.916 23 255 23V21C252.257 21 249.823 22.3267 248.306 24.3692L249.912 25.5616ZM255 23C257.837 23 260.241 24.8659 261.046 27.4399L262.955 26.8428C261.896 23.4581 258.736 21 255 21V23ZM263.362 30.0812C264.536 30.6947 265.333 31.9217 265.333 33.3333H267.333C267.333 31.1482 266.096 29.2536 264.289 28.3088L263.362 30.0812ZM247 27C248.111 27 249.223 26.4884 249.912 25.5616L248.306 24.3692C248.02 24.7539 247.522 25 247 25V27ZM261.046 27.4399C261.423 28.6446 262.357 29.5559 263.362 30.0812L264.289 28.3088C263.634 27.9667 263.137 27.4249 262.955 26.8428L261.046 27.4399ZM265.617 35C266.458 35 267.333 34.3604 267.333 33.3333H265.333C265.333 33.2213 265.386 33.1253 265.448 33.0694C265.504 33.0185 265.565 33 265.617 33V35ZM242.756 33C242.535 33 242.342 32.9291 242.214 32.8317C242.095 32.7412 242.039 32.6373 242.027 32.5206L240.037 32.726C240.192 34.2218 241.553 35 242.756 35V33Z" fill="black" mask="url(#path-14-inside-3)"/>
<mask id="path-16-inside-4" fill="white">
<path fill-rule="evenodd" clip-rule="evenodd" d="M241.607 37.0525C242.037 38.0697 241.105 39 240 39H224.315C223.667 39 223 38.6481 223 38V38C223 36.8954 223.895 36 225 36V36C225.297 36 225.596 35.8778 225.772 35.638C226.499 34.6449 227.674 34 229 34V34C229.199 34 229.384 33.8924 229.485 33.7211C230.094 32.6909 231.216 32 232.5 32C233.501 32 234.405 32.4205 235.043 33.0946C235.546 33.627 236.267 34 237 34V34C239.071 34 240.847 35.2586 241.607 37.0525Z"/>
</mask>
<path fill-rule="evenodd" clip-rule="evenodd" d="M241.607 37.0525C242.037 38.0697 241.105 39 240 39H224.315C223.667 39 223 38.6481 223 38V38C223 36.8954 223.895 36 225 36V36C225.297 36 225.596 35.8778 225.772 35.638C226.499 34.6449 227.674 34 229 34V34C229.199 34 229.384 33.8924 229.485 33.7211C230.094 32.6909 231.216 32 232.5 32C233.501 32 234.405 32.4205 235.043 33.0946C235.546 33.627 236.267 34 237 34V34C239.071 34 240.847 35.2586 241.607 37.0525Z" fill="#6529C3"/>
<path d="M241.607 37.0525L240.686 37.4423L241.607 37.0525ZM224.315 40H240V38H224.315V40ZM224 38C224 37.4477 224.448 37 225 37V35C223.343 35 222 36.3431 222 38H224ZM226.578 36.2291C227.126 35.4819 228.006 35 229 35V33C227.342 33 225.873 33.8078 224.965 35.0469L226.578 36.2291ZM230.346 34.2301C230.783 33.4916 231.584 33 232.5 33V31C230.849 31 229.406 31.8902 228.624 33.2121L230.346 34.2301ZM232.5 33C233.215 33 233.859 33.2992 234.316 33.782L235.769 32.4073C234.95 31.5419 233.787 31 232.5 31V33ZM237 35C238.655 35 240.077 36.0052 240.686 37.4423L242.527 36.6627C241.617 34.512 239.486 33 237 33V35ZM234.316 33.782C234.968 34.4712 235.938 35 237 35V33C236.596 33 236.124 32.7829 235.769 32.4073L234.316 33.782ZM225 37C225.547 37 226.177 36.7769 226.578 36.2291L224.965 35.0469C224.99 35.0125 225.015 34.9999 225.019 34.9979C225.021 34.9968 225.02 34.9975 225.016 34.9984C225.012 34.9993 225.006 35 225 35V37ZM229 35C229.56 35 230.068 34.6993 230.346 34.2301L228.624 33.2121C228.699 33.0855 228.838 33 229 33V35ZM240 40C240.821 40 241.61 39.6572 242.129 39.0693C242.671 38.4551 242.91 37.5654 242.527 36.6627L240.686 37.4423C240.718 37.5199 240.716 37.5679 240.71 37.5977C240.704 37.6328 240.683 37.6848 240.629 37.7461C240.513 37.8776 240.283 38 240 38V40ZM224.315 38C224.241 38 224.169 37.9898 224.106 37.9721C224.042 37.9541 224 37.9321 223.978 37.917C223.957 37.9024 223.964 37.9015 223.977 37.9247C223.994 37.9526 224 37.9832 224 38H222C222 38.7173 222.386 39.2521 222.851 39.5691C223.293 39.8708 223.827 40 224.315 40V38Z" fill="black" mask="url(#path-16-inside-4)"/>
<circle cx="170" cy="33" r="4" stroke="black"/>
<line x1="147" y1="33.5" x2="156" y2="33.5" stroke="black"/>
</svg>
